!!!COM: Vivaldi, Antonio
!!!OTL: Concerto a violino solo, No. 7
!!!XEN: Violin Concerto No. 7 in D minor
!!!OPR: Il Cimento dell'armonia e dell'inventione
!!!XEN: The Contest of Harmony and Invention
!!!OPS: Opus 8
!!!ONM: No. 7
!!!OMV: Movement 1.
!!!YEC: Copyright 1996, Center for Computer Assisted Research in the Humanities
!!!YEM: Rights to all derivative electronic formats reserved.
!!!YEM: Refer to licensing agreement for important restrictions.
!!!OMD: Allegro
**kern	**kern	**kern	**kern	**kern	**Bnum
*Icello	*Iviola	*Ivioln	*Ivioln	*Ivioln	*Icemba
*Icemba	*	*	*	*	*
*ICstr	*ICstr	*ICstr	*ICstr	*ICstr	*ICklav
*ICklav	*	*	*	*	*
!cello	!viola	!violino 2	!violino 1	!violino principale	!continuo
!basso continuo	!	!	!	!	!
*clefF4	*clefC3	*clefG2	*clefG2	*clefG2	*
*k[b-]	*k[b-]	*k[b-]	*k[b-]	*k[b-]	*k[b-]
*d:	*d:	*d:	*d:	*d:	*d:
*M4/4	*M4/4	*M4/4	*M4/4	*M4/4	*M4/4
*>Amsterdam[1,2a]	*>Amsterdam[1,2a]	*>Amsterdam[1,2a]	*>Amsterdam[1,2a]	*>Amsterdam[1,2a]	*>Amsterdam[1,2a]
*>Dresden[1,2b]	*>Dresden[1,2b]	*>Dresden[1,2b]	*>Dresden[1,2b]	*>Dresden[1,2b]	*>Dresden[1,2b]
*>1	*>1	*>1	*>1	*>1	*>1
=1-	=1-	=1-	=1-	=1-	=1-
4D\	4r	8r	8r	8r	.
.	.	8dd\	8dd\	8dd\	.
8r	8r	[4aa\	[4aa\	[4aa\	.
8D\	8f\	.	.	.	.
[2B-\	2d\	8aa\L]	8aa\L]	8aa\L]	7
.	.	16gg\L	16gg\L	16gg\L	6
.	.	16ff\JJ	16ff\JJ	16ff\JJ	.
.	.	8ee\L	8ee\L	8ee\L	.
.	.	8dd\J	8dd\J	8dd\J	.
=2	=2	=2	=2	=2	=2
8B-\L]	8e\L	8cc#\L	8cc#\L	8cc#\L	2+
16A\L	8b-\	8dd\J	8dd\J	8dd\J	.
16G\JJ	.	.	.	.	.
8F\L	8a\	[4ee\	[4ee\	[4ee\	7
8E\J	8g\J	.	.	.	.
4.F\	4.a\	8ee\L]	8ee\L]	8ee\L]	7
.	.	8a\J	8a\J	8a\J	.
.	.	8dd\L	8dd\L	8dd\L	6
16E\LL	16g\LL	16ee\L	16ee\L	16ee\L	.
16D\JJ	16f\JJ	16ff\JJ	16ff\JJ	16ff\JJ	.
=3	=3	=3	=3	=3	=3
4C#/	4e\	8gg\L	8gg\L	8gg\L	6 5
.	.	8ee\	8ee\	8ee\	.
4AA/	4c#\	8aa\	8aa\	8aa\	7
.	.	8gg\J	8gg\J	8gg\J	.
4D\	4A/	8ff\L	8ff\L	8ff\L	.
.	.	8dd\J	8dd\J	8dd\J	.
8d\	8a\	8ff\	8ff\	8ff\	.
8r	8r	8r	8r	8r	.
=4	=4	=4	=4	=4	=4
8G\	8b-\	8ee-\	8ee-\	8ee-\	b6
8r	8r	8r	8r	8r	.
8G#\	8bn\	8dd\	8dd\	8dd\	6 5
8r	8r	8r	8r	8r	.
4.A\	4.e\	8cc#\L	8cc#\L	8cc#\L	#
*	*	*	*	*strophe	*
*	*	*	*	*^	*
*	*	*	*	*S/S	*S/A	*
.	.	8een\J	8een\J	8een\J	8ee\J	.
*	*	*	*	*S/fin	*S/fin	*
*	*	*	*	*v	*v	*
*	*	*	*	*S-	*
.	.	[4aa\	[4aa\	[4aa\	.
8A\	8a\	.	.	.	.
=5	=5	=5	=5	=5	=5
4d\	4f#\	8aa\]	8aa\]	8aa\]	#
.	.	4ff#\	4ff#\	4ff#\	.
4c\	4a\	.	.	.	4+ 2
.	.	8gg\	8gg\	8gg\	5
4B-\	(8d\L	(8g\L	(8g\L	(8g\L	6
.	8g\	8b-\	8b-\	8b-\	.
8r	8b-\)	8dd\)	8dd\)	8dd\)	.
8B-\	8dd\J	[8gg\J	[8gg\J	[8gg\J	.
=6	=6	=6	=6	=6	=6
4c\	4e\	8gg\]	8gg\]	8gg\]	.
.	.	4ee\	4ee\	4ee\	.
4B-\	4g\	.	.	.	6
.	.	8ff\	8ff\	8ff\	.
4A\	(8c\L	(8f\L	(8f\L	(8f\L	6
.	8f\	8a\	8a\	8a\	.
8r	8a\)	8cc\)	8cc\)	8cc\)	.
8A\	8cc\J	[8ff\J	[8ff\J	[8ff\J	.
=7	=7	=7	=7	=7	=7
4G\	4b-\	8ff\]	8ff\]	8ff\]	7
.	.	4ee\	4ee\	4ee\	6
4G#\	4bn\	.	.	.	6 5
.	.	8dd\	8dd\	8dd\	5
4A\	4e\	8cc#\	8cc#\	8cc#\	#
.	.	4aa\	4aa\	4aa\	.
4C#/	4e\	.	.	.	6
.	.	8gg\	8gg\	8gg\	.
=8	=8	=8	=8	=8	=8
4D\	8A\L	8ff\L	8ff\L	8ff\L	.
.	8f\	8dd\J	8dd\J	8dd\J	.
16G\LL	8d\	[4bb-\	[4bb-\	[4bb-\	.
16A\	.	.	.	.	.
16B-\	8g\J	.	.	.	6
16G\JJ	.	.	.	.	.
16c\LL	16e\LL	8bb-\L]	8bb-\L]	8bb-\L]	7
16d\	16f\	.	.	.	.
16e\	16g\	8ee\J	8ee\J	8ee\J	.
16c\JJ	16e\JJ	.	.	.	.
16F\LL	8c\L	[4aa\	[4aa\	[4aa\	7
16G\	.	.	.	.	.
16A\	8f\J	.	.	.	.
16F\JJ	.	.	.	.	.
=9	=9	=9	=9	=9	=9
16B-\LL	16d\LL	8aa\L]	8aa\L]	8aa\L]	7
16c\	16e\	.	.	.	.
16d\	16f\	8dd\J	8dd\J	8dd\J	.
16c\JJ	16e\JJ	.	.	.	.
16B-\LL	16d\LL	[4gg\	[4gg\	[4gg\	6
16A\	16c\	.	.	.	.
16G\	16B-\	.	.	.	.
16B-\JJ	16d\JJ	.	.	.	.
16A\LL	16c#\LL	8gg\L]	8gg\L]	8gg\L]	7 #
16Bn\	16d\	.	.	.	.
16c#\	16e\	8a\J	8a\J	8a\J	.
16A\JJ	16c#\JJ	.	.	.	.
16D\LL	8A\L	[4ff\	[4ff\	[4ff\	.
16E\	.	.	.	.	.
16F\	8a\J	.	.	.	.
16D\JJ	.	.	.	.	.
=10	=10	=10	=10	=10	=10
16G\LL	4b-\	8ff\L]	8ff\L]	8ff\L]	6 5
16A\	.	.	.	.	.
16B-\	.	16ee\L	16ee\L	16ee\L	.
16G\JJ	.	16dd\JJ	16dd\JJ	16dd\JJ	.
8A\L	4e\	8.cc#t\L	8.cc#t\L	8.cc#t\L	4
8AA\J	.	.	.	.	#
.	.	16dd\Jk	16dd\Jk	16dd\Jk	.
4D\	4f\	8dd\L	8dd\L	8dd\L	.
.	.	8a\J	8a\J	8a\J	.
8r	8r	[4b-\	[4b-\	[4b-\	.
8D\	8f\	.	.	.	6
=11	=11	=11	=11	=11	=11
4.C#/	4.e\	8b-/L]	8b-/L]	8b-/L]	7
.	.	8a/J	8a/J	8a/J	6
.	.	[4gg\	[4gg\	[4gg\	5
8AA/	8c#\	.	.	.	.
4.D\	4A/	8gg\L]	8gg\L]	8gg\L]	4
.	.	8ff\J	8ff\J	8ff\J	3
.	8f\L	[4bb-\	[4bb-\	[4bb-\	.
8G\	8d\J	.	.	.	.
=12	=12	=12	=12	=12	=12
4C#/	4e\	8bb-\L]	8bb-\L]	8bb-\L]	7
.	.	16aa\L	16aa\L	16aa\L	.
.	.	16gg\JJ	16gg\JJ	16gg\JJ	.
8D/L	[4a\	8ff\L	8ff\L	8ff\L	.
8C#/J	.	8ee\J	8ee\J	8ee\J	.
8D\L	8a\L]	8ff\L	8ff\L	8ff\L	.
8G\	8b-\	16ee\L	16ee\L	16ee\L	.
.	.	16dd\JJ	16dd\JJ	16dd\JJ	.
8A\	8e\	8.cc#t\L	8.cc#t\L	8.cc#t\L	4
8AA\J	8a\J	.	.	.	#
.	.	16dd\Jk	16dd\Jk	16dd\Jk	.
=13	=13	=13	=13	=13	=13
4D\	4f\	4dd\	4dd\	8dd\L	.
.	.	.	.	8dd\J	.
8r	4r	4r	4r	[4aa\	.
8D\	.	.	.	.	.
[2B-\	2r	2r	2r	8aa\L]	7
.	.	.	.	16gg\L	6
.	.	.	.	16ff\JJ	.
.	.	.	.	8ee\L	.
.	.	.	.	8dd\J	.
=14	=14	=14	=14	=14	=14
8B-\L]	1r	1r	1r	8cc#\L	2+
16A\L	.	.	.	8dd\J	.
16G\JJ	.	.	.	.	.
8F\L	.	.	.	[4ee\	7
8E\J	.	.	.	.	.
4.F\	.	.	.	8ee\L]	7
.	.	.	.	8a\J	.
.	.	.	.	8dd\L	6
16E\LL	.	.	.	16ee\L	.
16D\JJ	.	.	.	16ff\JJ	.
=15	=15	=15	=15	=15	=15
4C#/	1r	1r	1r	8gg\L	6 5
.	.	.	.	8ee\	.
4AA/	.	.	.	8aa\	.
.	.	.	.	8gg\J	.
8D\L	.	.	.	8ff\L	.
8E\	.	.	.	8dd\J	.
8F\	.	.	.	16r	.
.	.	.	.	16dd\LL	.
8E\J	.	.	.	16a\	.
.	.	.	.	16dd\JJ	.
=16	=16	=16	=16	=16	=16
8D\L	1r	1r	1r	16ff\LL	.
.	.	.	.	(16dd\	.
8F\	.	.	.	16a\	.
.	.	.	.	16dd\JJ)	.
8E\	.	.	.	16ff\LL	.
.	.	.	.	(16dd\	.
8D\J	.	.	.	16a\	.
.	.	.	.	16dd\JJ)	.
8GG/L	.	.	.	16b-/LL	.
.	.	.	.	(16g/	.
8BB-/	.	.	.	16d/	.
.	.	.	.	16g/JJ)	.
8AA/	.	.	.	16b-/LL	.
.	.	.	.	(16g/	.
8GG/J	.	.	.	16d/	.
.	.	.	.	16g/JJ)	.
=17	=17	=17	=17	=17	=17
8E\L	1r	1r	1r	16cc\LL	6
.	.	.	.	16b-\	.
8D\	.	.	.	16cc\	.
.	.	.	.	16dd\JJ	.
8E\	.	.	.	16cc/LL	.
.	.	.	.	16b-/	.
8C\J	.	.	.	16a/	.
.	.	.	.	16g/JJ	.
8F\L	.	.	.	16f/LL	.
.	.	.	.	(16c/	.
8G\	.	.	.	16A/	.
.	.	.	.	16c/JJ)	.
8A\	.	.	.	16f/LL	6
.	.	.	.	(16c/	.
8G\J	.	.	.	16A/	.
.	.	.	.	16c/JJ)	.
=18	=18	=18	=18	=18	=18
8F#\L	1r	1r	1r	16dd\LL	6
.	.	.	.	16cc\	.
8E\	.	.	.	16dd\	.
.	.	.	.	16ee\JJ	.
8F#\	.	.	.	16dd\LL	.
.	.	.	.	16cc\	.
8D\J	.	.	.	16bn\	.
.	.	.	.	16a\JJ	.
8G\L	.	.	.	16b/LL	n
.	.	.	.	(16g/	.
8F#\	.	.	.	16d/	.
.	.	.	.	16g/JJ)	.
8G\	.	.	.	16b/LL	n
.	.	.	.	(16g/	.
8GG\J	.	.	.	16d/	.
.	.	.	.	16g/JJ)	.
=19	=19	=19	=19	=19	=19
8G#\L	1r	1r	1r	16ee\LL	6
.	.	.	.	16dd\	.
8F#\	.	.	.	16ee\	.
.	.	.	.	16ff\JJ	.
8G#\	.	.	.	16ee\LL	.
.	.	.	.	16dd\	.
8E\J	.	.	.	16cc#\	.
.	.	.	.	16bn\JJ	.
8A\L	.	.	.	16cc#/LL	#
.	.	.	.	(16a/	.
8G#\	.	.	.	16e/	.
.	.	.	.	16a/JJ)	.
8A\	.	.	.	16cc#/LL	.
.	.	.	.	(16a/	.
8AA\J	.	.	.	16e/	.
.	.	.	.	16a/JJ)	.
=20	=20	=20	=20	=20	=20
8c#\L	1r	1r	1r	16aa\LL	6
.	.	.	.	16gg\	.
8Bn\	.	.	.	16aa\	.
.	.	.	.	16bb-\JJ	.
8c#\	.	.	.	16aa\LL	.
.	.	.	.	16gg\	.
8A\J	.	.	.	16ff\	.
.	.	.	.	16ee\JJ	.
8d\L	.	.	.	16ff\LL	.
.	.	.	.	(16dd\	.
8c#\	.	.	.	16a\	.
.	.	.	.	16dd\JJ)	.
8d\	.	.	.	16ff\LL	.
.	.	.	.	(16dd\	.
8D\J	.	.	.	16a\	.
.	.	.	.	16dd\JJ)	.
=21	=21	=21	=21	=21	=21
8c#\L	1r	1r	1r	16ee\LL	6
.	.	.	.	(16cc#\	.
8Bn\	.	.	.	16a\	.
.	.	.	.	16cc#\JJ)	.
8A\	.	.	.	16ee\LL	.
.	.	.	.	(16cc#\	.
8c#\J	.	.	.	16a\	.
.	.	.	.	16cc#\JJ)	.
8d\L	.	.	.	16ff\LL	.
.	.	.	.	(16dd\	.
8c#\	.	.	.	16a\	.
.	.	.	.	16dd\JJ)	.
8d\	.	.	.	16ff\LL	.
.	.	.	.	(16dd\	.
8D\J	.	.	.	16a\	.
.	.	.	.	16dd\JJ)	.
=22	=22	=22	=22	=22	=22
8G#\L	1r	1r	1r	16bn/LL	6 n
.	.	.	.	(16g#/	.
8F#\	.	.	.	16e/	.
.	.	.	.	16g#/JJ)	.
8E\	.	.	.	16b/LL	.
.	.	.	.	(16g#/	.
8G#\J	.	.	.	16e/	.
.	.	.	.	16g#/JJ)	.
8A\L	.	.	.	16cc/LL	.
.	.	.	.	(16a/	.
8G#\	.	.	.	16e/	.
.	.	.	.	16a/JJ)	.
8A\	.	.	.	16cc/LL	.
.	.	.	.	(16a/	.
8AA\J	.	.	.	16e/	.
.	.	.	.	16a/JJ)	.
=23	=23	=23	=23	=23	=23
8G#\L	1r	1r	1r	16bn/LL	6 n
.	.	.	.	(16g#/	.
8F#\	.	.	.	16e/	.
.	.	.	.	16g#/JJ)	.
8E\	.	.	.	16b/LL	.
.	.	.	.	(16g#/	.
8G#\J	.	.	.	16e/	.
.	.	.	.	16g#/JJ)	.
8A\L	.	.	.	16cc/LL	.
.	.	.	.	(16a/	.
8G#\	.	.	.	16e/	.
.	.	.	.	16a/JJ)	.
8A\	.	.	.	16cc/LL	.
.	.	.	.	(16a/	.
8AA\J	.	.	.	16e/	.
.	.	.	.	16a/JJ)	.
=24	=24	=24	=24	=24	=24
8E/L	1r	1r	1r	16bn/LL	6 4
.	.	.	.	(16a/	.
8EE/J	.	.	.	16e/	.
.	.	.	.	16a/JJ)	.
8r	.	.	.	16b/LL	.
.	.	.	.	(16a/	.
8E\	.	.	.	16e/	5 4
.	.	.	.	16a/JJ)	.
8E/L	.	.	.	16b/LL	#
.	.	.	.	(16g#/	.
8EE/J	.	.	.	16e/	.
.	.	.	.	16g#/JJ)	.
8r	.	.	.	16b/LL	.
.	.	.	.	(16g#/	.
8E\	.	.	.	16e/	.
.	.	.	.	16g#/JJ)	.
=25	=25	=25	=25	=25	=25
4AA/	4r	8r	8r	8a/L	.
.	.	8a/	8a/	8a/J	.
8r	8r	[4ee\	[4ee\	[4ee\	.
8AA/	8c\	.	.	.	.
[2F\	2A/	8ee\L]	8ee\L]	8ee\L]	7
.	.	16dd\L	16dd\L	16dd\L	6
.	.	16cc\JJ	16cc\JJ	16cc\JJ	.
.	.	8bn/L	8bn/L	8bn/L	.
.	.	8a/J	8a/J	8a/J	.
=26	=26	=26	=26	=26	=26
8F\L]	8Bn\L	8g#/L	8g#/L	8g#/L	4+ 2+
16E\L	8f\	8a/J	8a/J	8a/J	.
16D\JJ	.	.	.	.	.
8C/L	8e\	[4bn\	[4bn\	[4bn\	7
8BBn/J	8d\J	.	.	.	.
4.C/	4.e\	8b\L]	8b\L]	8b\L]	7
.	.	8ee\J	8ee\J	8ee\J	.
.	.	8a\L	8a\L	8a\L	6
16BB/LL	16d\LL	16b\L	16b\L	16b\L	.
16AA/JJ	16c\JJ	16cc\JJ	16cc\JJ	16cc\JJ	.
=27	=27	=27	=27	=27	=27
4GG#/	4Bn/	8dd\L	8dd\L	8dd\L	6 5
.	.	8bn\	8bn\	8bn\	.
4EE/	4g#\	8ee\	8ee\	8ee\	.
.	.	8dd\J	8dd\J	8dd\J	.
4AA/	4e\	8cc\L	8cc\L	8cc\L	.
.	.	8a\J	8a\J	8a\J	.
8A\	8e\	8ccc\	8ccc\	8ccc\	.
8r	8r	8r	8r	8r	.
=28	=28	=28	=28	=28	=28
8D\	8f\	8bbn\	8bbn\	8bbn\	n6
8r	8r	8r	8r	8r	.
8D#\	8f#\	8aa\	8aa\	8aa\	6 5
8r	8r	8r	8r	8r	.
8E\L	8Bn\L	8gg#\L	8gg#\L	8gg#\L	#
16c\L	8bn\J	8ee\J	8ee\J	8ee\J	.
16Bn\JJ	.	.	.	.	.
16A\LL	16cc\LL	[4ff\	[4ff\	[4ff\	6
16G\	16b\	.	.	.	.
16A\	16cc\	.	.	.	.
16F\JJ	16a\JJ	.	.	.	.
=29	=29	=29	=29	=29	=29
16G\LL	16bn\LL	8ff\L]	8ff\L]	8ff\L]	7 n
16A\	16cc\	.	.	.	.
16Bn\	16dd\	8bn\J	8bn\J	8bn\J	.
16G\JJ	16b\JJ	.	.	.	.
16C/LL	8g\L	[4ee\	[4ee\	[4ee\	.
16D/	.	.	.	.	.
16E/	8cc\J	.	.	.	.
16C/JJ	.	.	.	.	.
16F\LL	16a\LL	8ee\L]	8ee\L]	8ee\L]	7
16G\	16b\	.	.	.	.
16A\	16cc\	8a\J	8a\J	8a\J	.
16G\JJ	16b\JJ	.	.	.	.
16F\LL	16a\LL	[4dd\	[4dd\	[4dd\	6
16E\	16g\	.	.	.	.
16D\	16f\	.	.	.	.
16F\JJ	16a\JJ	.	.	.	.
=30	=30	=30	=30	=30	=30
16E\LL	16g#\LL	8dd/L]	8dd/L]	8dd/L]	7 #
16F#\	16a\	.	.	.	.
16G#\	16bn\	8e/J	8e/J	8e/J	.
16E\JJ	16g#\JJ	.	.	.	.
16A\LL	8e\L	[4cc\	[4cc\	[4cc\	7
16Bn\	.	.	.	.	.
16c\	8a\J	.	.	.	.
16A\JJ	.	.	.	.	.
16D\LL	4f\	8cc\L]	8cc\L]	8cc\L]	7
16E\	.	.	.	.	.
16Fn\	.	16bn\L	16bn\L	16bn\L	.
16D\JJ	.	16a\JJ	16a\JJ	16a\JJ	.
8E/L	8Bn\L	8.g#t/L	8.g#t/L	8.g#t/L	#
8EE/J	8e\J	.	.	.	.
.	.	16a/Jk	16a/Jk	16a/Jk	.
=31	=31	=31	=31	=31	=31
4AA/	4c\	8a\L	8a\L	8a\L	.
.	.	8ee\J	8ee\J	8ee\J	.
8r	8r	[4ff\	[4ff\	[4ff\	.
8A\	8cc\	.	.	.	6
4.G#\	4.bn\	8ff\L]	8ff\L]	8ff\L]	7
.	.	8ee\J	8ee\J	8ee\J	.
.	.	[4ddd\	[4ddd\	[4ddd\	.
8E\	8g#\	.	.	.	.
=32	=32	=32	=32	=32	=32
4.A\	4e\	8ddd\L]	8ddd\L]	8ddd\L]	4
.	.	8ccc\J	8ccc\J	8ccc\J	3
.	8cc\L	[4ff\	[4ff\	[4ff\	.
8d\	8a\J	.	.	.	.
4G#\	4bn\	8ff\L]	8ff\L]	8ff\L]	7
.	.	16ee\L	16ee\L	16ee\L	.
.	.	16dd\JJ	16dd\JJ	16dd\JJ	.
8A\L	[4e\	8cc\L	8cc\L	8cc\L	.
8G#\J	.	8bn\J	8bn\J	8bn\J	.
=33	=33	=33	=33	=33	=33
8A/L	8e\L]	8cc\L	8cc\L	8cc\L	.
8D/	8f\	16bn\L	16bn\L	16bn\L	.
.	.	16a\JJ	16a\JJ	16a\JJ	.
8E/	8Bn\	8.g#t/L	8.g#t/L	8.g#t/L	4
8EE/J	8e\J	.	.	.	#
.	.	16a/Jk	16a/Jk	16a/Jk	.
4AA/	4c\	4a/	4a/	8a/	.
.	.	.	.	4ccT\	.
4A\	4r	4r	4r	.	.
.	.	.	.	16b/LL	.
.	.	.	.	16a/JJ	.
=34	=34	=34	=34	=34	=34
4G\	1r	1r	1r	8ee\	6
.	.	.	.	4ggT\	.
4G\	.	.	.	.	.
.	.	.	.	16ff\LL	.
.	.	.	.	16ee\JJ	.
4F\	.	.	.	8aa\	.
.	.	.	.	4cccT\	.
4F\	.	.	.	.	.
.	.	.	.	16bbn\LL	.
.	.	.	.	16aa\JJ	.
=35	=35	=35	=35	=35	=35
8E\L	1r	1r	1r	8bbn\L	#
8F#\	.	.	.	8ee\J	.
8G#\	.	.	.	16r	6
.	.	.	.	16ee\LL	.
8F#\J	.	.	.	16bb\	.
.	.	.	.	16eee\JJ	.
8E\L	.	.	.	16ee\LL	#
.	.	.	.	16bb\	.
8F#\	.	.	.	16eee\	.
.	.	.	.	16bb\JJ	.
8G#\	.	.	.	16ee\LL	6
.	.	.	.	16ddd\	.
8E\J	.	.	.	16ccc\	.
.	.	.	.	16bb\JJ	.
=36	=36	=36	=36	=36	=36
4A\	1r	1r	1r	16ccc\LL	.
.	.	.	.	16ee\	.
.	.	.	.	(16a\	.
.	.	.	.	16ee\JJ	.
4r	.	.	.	16ccc\LL)	.
.	.	.	.	16bbn\	.
.	.	.	.	16aa\	.
.	.	.	.	16gg\JJ	.
8D\L	.	.	.	16ff\LL	7
.	.	.	.	16ee\	.
8E\	.	.	.	16ff\	.
.	.	.	.	16gg\JJ	.
8F\	.	.	.	16ff\LL	.
.	.	.	.	16gg\	.
8D\J	.	.	.	16aa\	.
.	.	.	.	16ff\JJ	.
=37	=37	=37	=37	=37	=37
4G\	1r	1r	1r	16bbn\LL	7 n
.	.	.	.	16dd\	.
.	.	.	.	(16g\	.
.	.	.	.	16dd\JJ	.
4r	.	.	.	16bb\LL)	.
.	.	.	.	16aa\	.
.	.	.	.	16gg\	.
.	.	.	.	16ff\JJ	.
8C/L	.	.	.	16ee\LL	n7
.	.	.	.	16dd\	.
8D/	.	.	.	16ee\	.
.	.	.	.	16ff\JJ	.
8E/	.	.	.	16ee\LL	.
.	.	.	.	16ff\	.
8C/J	.	.	.	16gg\	.
.	.	.	.	16ee\JJ	.
=38	=38	=38	=38	=38	=38
4F\	1r	1r	1r	16aa\LL	7
.	.	.	.	16cc\	.
.	.	.	.	(16f\	.
.	.	.	.	16cc\JJ	.
4r	.	.	.	16aa\LL)	.
.	.	.	.	16gg\	.
.	.	.	.	16ff\	.
.	.	.	.	16ee\JJ	.
8BBn/L	.	.	.	16dd\LL	7
.	.	.	.	16cc\	.
8C/	.	.	.	16dd\	.
.	.	.	.	16ee\JJ	.
8D/	.	.	.	16dd\LL	.
.	.	.	.	16ee\	.
8BB/J	.	.	.	16ff\	.
.	.	.	.	16dd\JJ	.
=39	=39	=39	=39	=39	=39
8E\L	1r	1r	1r	16gg#\LL	7 #
.	.	.	.	16bn\	.
8G#\	.	.	.	(16e\	.
.	.	.	.	16b\JJ	.
8F#\	.	.	.	16gg#\LL)	.
.	.	.	.	16dd\	.
8E\J	.	.	.	16cc\	.
.	.	.	.	16b\JJ	.
4A\	.	.	.	16cc/LL	.
.	.	.	.	16e/	.
.	.	.	.	(16A/	.
.	.	.	.	16e/JJ	.
4r	.	.	.	16cc\LL)	.
.	.	.	.	16dd\	.
.	.	.	.	16cc\	.
.	.	.	.	16b\JJ	.
=40	=40	=40	=40	=40	=40
8E\L	1r	1r	1r	16gg#\LL	#
.	.	.	.	16bn\	.
8G#\	.	.	.	(16e\	.
.	.	.	.	16b\JJ	.
8F#\	.	.	.	16gg#\LL)	.
.	.	.	.	16dd\	.
8E\J	.	.	.	16cc\	.
.	.	.	.	16b\JJ	.
4A\	.	.	.	16cc/LL	.
.	.	.	.	16e/	.
.	.	.	.	(16A/	.
.	.	.	.	16e/JJ	.
4r	.	.	.	16cc\LL)	.
.	.	.	.	16dd\	.
.	.	.	.	16cc\	.
.	.	.	.	16b\JJ	.
=41	=41	=41	=41	=41	=41
4A\	4r	8r	8r	8cc\L	.
.	.	8a/	8a/	8a\J	.
8r	8r	[4ff\	[4ff\	[4ff\	.
8A\	8cc\	.	.	.	6
16G#\LL	16bn\LL	8ff\L]	8ff\L]	8ff\L]	7
16A\	16cc\	.	.	.	.
16Bn\	16dd\	8bn\J	8bn\J	8bn\J	.
16A\JJ	16cc\JJ	.	.	.	.
16Gn\LL	16b\LL	[4ee\	[4ee\	[4ee\	6
16A\	16cc\	.	.	.	.
16B\	16dd\	.	.	.	.
16G\JJ	16b\JJ	.	.	.	.
=42	=42	=42	=42	=42	=42
16F#\LL	16a\LL	8ee\L]	8ee\L]	8ee\L]	7
16G\	16bn\	.	.	.	.
16A\	16cc\	8a\J	8a\J	8a\J	.
16G\JJ	16b\JJ	.	.	.	.
16Fn\LL	16a\LL	4dd\	4dd\	4dd\	6
16G\	16b\	.	.	.	.
16A\	16cc\	.	.	.	.
16F\JJ	16a\JJ	.	.	.	.
[2E\	[2g#\	[2bn\	[2dd\	16gg#\LL	7 #
.	.	.	.	16dd\	.
.	.	.	.	16e\	.
.	.	.	.	16dd\JJ	.
.	.	.	.	16gg#\LL	.
.	.	.	.	16dd\	.
.	.	.	.	16e\	.
.	.	.	.	16dd\JJ	.
=43	=43	=43	=43	=43	=43
1E_\	1g#_\	1b_\	1dd_\	16bbn\LL	n5 #
.	.	.	.	16dd\	.
.	.	.	.	16e\	.
.	.	.	.	16dd\JJ	.
.	.	.	.	16bb\LL	.
.	.	.	.	16dd\	.
.	.	.	.	16e\	.
.	.	.	.	16dd\JJ	.
.	.	.	.	16gg#\LL	.
.	.	.	.	16dd\	.
.	.	.	.	16e\	.
.	.	.	.	16dd\JJ	.
.	.	.	.	16gg#\LL	.
.	.	.	.	16dd\	.
.	.	.	.	16e\	.
.	.	.	.	16dd\JJ	.
=44	=44	=44	=44	=44	=44
1E_\	1g#_\	1b_\	1dd_\	16bbn\LL	7 n5 #
.	.	.	.	16dd\	.
.	.	.	.	16e\	.
.	.	.	.	16dd\JJ	.
.	.	.	.	16bb\LL	.
.	.	.	.	16dd\	.
.	.	.	.	16e\	.
.	.	.	.	16dd\JJ	.
.	.	.	.	16ee\LL	.
.	.	.	.	16dd\	.
.	.	.	.	16e\	.
.	.	.	.	16dd\JJ	.
.	.	.	.	16ee\LL	.
.	.	.	.	16dd\	.
.	.	.	.	16e\	.
.	.	.	.	16dd\JJ	.
=45	=45	=45	=45	=45	=45
2E\]	2g#\]	2b\]	2dd\]	16ee\LL	7 n5 #
.	.	.	.	16dd\	.
.	.	.	.	16g#\	.
.	.	.	.	16dd\JJ	.
.	.	.	.	16ee\LL	.
.	.	.	.	16dd\	.
.	.	.	.	16g#\	.
.	.	.	.	16dd\JJ	.
[2AA/	[2gn\	[2ee\	[2cc#\	16cc#/LL	#
.	.	.	.	16e/	.
.	.	.	.	16A/	.
.	.	.	.	16e/JJ	.
.	.	.	.	16cc#/LL	.
.	.	.	.	16e/	.
.	.	.	.	16A/	.
.	.	.	.	16e/JJ	.
=46	=46	=46	=46	=46	=46
1AA_/	1g_\	1ee_\	1cc#_\	16ee/LL	7 #
.	.	.	.	16g/	.
.	.	.	.	16A/	.
.	.	.	.	16g/JJ	.
.	.	.	.	16ee/LL	.
.	.	.	.	16g/	.
.	.	.	.	16A/	.
.	.	.	.	16g/JJ	.
.	.	.	.	16cc#/LL	.
.	.	.	.	16g/	.
.	.	.	.	16A/	.
.	.	.	.	16g/JJ	.
.	.	.	.	16cc#/LL	.
.	.	.	.	16g/	.
.	.	.	.	16A/	.
.	.	.	.	16g/JJ	.
=47	=47	=47	=47	=47	=47
1AA_/	1g_\	1ee_\	1cc#_\	16ee/LL	7 #
.	.	.	.	16g/	.
.	.	.	.	16A/	.
.	.	.	.	16g/JJ	.
.	.	.	.	16ee/LL	.
.	.	.	.	16g/	.
.	.	.	.	16A/	.
.	.	.	.	16g/JJ	.
.	.	.	.	16a/LL	.
.	.	.	.	16g/	.
.	.	.	.	16A/	.
.	.	.	.	16g/JJ	.
.	.	.	.	16a/LL	.
.	.	.	.	16g/	.
.	.	.	.	16A/	.
.	.	.	.	16g/JJ	.
=48	=48	=48	=48	=48	=48
2AA/]	2g\]	2ee\]	2cc#\]	16a/LL	7 #
.	.	.	.	16g/	.
.	.	.	.	16c#/	.
.	.	.	.	16g/JJ	.
.	.	.	.	16a/LL	.
.	.	.	.	16g/	.
.	.	.	.	16c#/	.
.	.	.	.	16g/JJ	.
[2D\	[2f#\	[2a/	[2ccn\	16ff#\LL	n7 #
.	.	.	.	16ccn\	.
.	.	.	.	16d\	.
.	.	.	.	16cc\JJ	.
.	.	.	.	16ff#\LL	.
.	.	.	.	16cc\	.
.	.	.	.	16d\	.
.	.	.	.	16cc\JJ	.
=49	=49	=49	=49	=49	=49
1D_\	1f#_\	1a_/	1cc_\	16aa\LL	n7 #
.	.	.	.	16cc\	.
.	.	.	.	16d\	.
.	.	.	.	16cc\JJ	.
.	.	.	.	16aa\LL	.
.	.	.	.	16cc\	.
.	.	.	.	16d\	.
.	.	.	.	16cc\JJ	.
.	.	.	.	16ff#\LL	.
.	.	.	.	16cc\	.
.	.	.	.	16d\	.
.	.	.	.	16cc\JJ	.
.	.	.	.	16ff#\LL	.
.	.	.	.	16cc\	.
.	.	.	.	16d\	.
.	.	.	.	16cc\JJ	.
*>2a	*>2a	*>2a	*>2a	*>2a	*>2a
=50	=50	=50	=50	=50	=50
1D_\	1f#_\	1a_/	1cc_\	16aa\LL	n7 #
.	.	.	.	16cc\	.
.	.	.	.	16d\	.
.	.	.	.	16cc\JJ	.
.	.	.	.	16aa\LL	.
.	.	.	.	16cc\	.
.	.	.	.	16d\	.
.	.	.	.	16cc\JJ	.
.	.	.	.	16ff#\LL	.
.	.	.	.	16cc\	.
.	.	.	.	16d\	.
.	.	.	.	16cc\JJ	.
.	.	.	.	16ff#\LL	.
.	.	.	.	16cc\	.
.	.	.	.	16d\	.
.	.	.	.	16cc\JJ	.
=51	=51	=51	=51	=51	=51
1D_\	1f#_\	1a_/	1cc_\	16ccc\LL	n7 #
.	.	.	.	16a\	.
.	.	.	.	16d\	.
.	.	.	.	16a\JJ	.
.	.	.	.	16ccc\LL	.
.	.	.	.	16a\	.
.	.	.	.	16d\	.
.	.	.	.	16a\JJ	.
.	.	.	.	16ccc\LL	.
.	.	.	.	16dd\	.
.	.	.	.	16d\	.
.	.	.	.	16dd\JJ	.
.	.	.	.	16ccc\LL	.
.	.	.	.	16dd\	.
.	.	.	.	16d\	.
.	.	.	.	16dd\JJ	.
=52	=52	=52	=52	=52	=52
2D\]	2f#\]	2a/]	2cc\]	16ccc\LL	n7 #
.	.	.	.	16ff#\	.
.	.	.	.	16d\	.
.	.	.	.	16ff#\JJ	.
.	.	.	.	16ccc\LL	.
.	.	.	.	16ff#\	.
.	.	.	.	16d\	.
.	.	.	.	16ff#\JJ	.
4GG/	4d\	8b-\L	8dd\L	4bb-/ 4dd/ 4d/	.
.	.	8dd\J	8dd\J	.	.
*	*	*	*	*back-4	*
!	!	!	!	!8G\L	!
!	!	!	!	!8dd\J	!
*	*	*	*	*endback	*
8r	8r	[4gg\	[4gg\	[4gg\	.
8G\	8b-\	.	.	.	.
=53	=53	=53	=53	=53	=53
2C#/	2e\	8gg\L]	8gg\L]	8gg\L]	6 5
.	.	16aa\L	16aa\L	16aa\L	.
.	.	16gg\JJ	16gg\JJ	16gg\JJ	.
.	.	8aa\L	8aa\L	8aa\L	.
.	.	8ee\J	8ee\J	8ee\J	.
4D\	4A/	8ff\L	8ff\L	8ff\L	.
.	.	8dd\J	8dd\J	8dd\J	.
8r	8r	[4ff\	[4ff\	[4ff\	.
8D\	8a\	.	.	.	.
=54	=54	=54	=54	=54	=54
2BBn/	2d\	8ff\L]	8ff\L]	8ff\L]	6 5
.	.	16gg\L	16gg\L	16gg\L	.
.	.	16ff\JJ	16ff\JJ	16ff\JJ	.
.	.	8gg\L	8gg\L	8gg\L	.
.	.	8dd\J	8dd\J	8dd\J	.
4C/	4G/	8ee-\L	8ee-\L	8ee-\L	b
.	.	8cc\J	8cc\J	8cc\J	.
8r	8r	[4ee-\	[4ee-\	[4ee-\	.
8C/	8g\	.	.	.	.
=55	=55	=55	=55	=55	=55
2AA/	2c\	8ee-\L]	8ee-\L]	8ee-\L]	6 b5
.	.	16ff\L	16ff\L	16ff\L	.
.	.	16ee-\JJ	16ee-\JJ	16ee-\JJ	.
.	.	8ff\L	8ff\L	8ff\L	.
.	.	8cc\J	8cc\J	8cc\J	.
4BB-/	4F/	8dd\L	8dd\L	8dd\L	.
.	.	8b-\	8b-\	8b-\	.
4B-\	4d\	8gg\	8gg\	8gg\	6
.	.	8dd\J	8dd\J	8dd\J	.
=56	=56	=56	=56	=56	=56
4A\	2e\	8cc#\	8cc#\	8cc#\	#
.	.	4aa\	4aa\	4aa\	.
4C#/	.	.	.	.	6 5
.	.	8gg\	8gg\	8gg\	.
4D\	4a\	8ff\	8ff\	8ff\	.
.	.	4ee\	4ee\	4ee\	.
4G#\	4bn\	.	.	.	6 5
.	.	8dd\	8dd\	8dd\	.
=57	=57	=57	=57	=57	=57
4A\	2e\	8cc#\	8cc#\	8cc#\	#
.	.	4aa\	4aa\	4aa\	.
4C#/	.	.	.	.	6
.	.	8gg\	8gg\	8gg\	.
4D\	4a\	8ff\	8ff\	8ff\	.
.	.	4ee\	4ee\	4ee\	.
4G#\	4bn\	.	.	.	6 5
.	.	8dd\	8dd\	8dd\	.
=58	=58	=58	=58	=58	=58
4AA/	4e\	4cc#\	8cc#\L	16cc#/LL	#
.	.	.	.	(16a/	.
.	.	.	8cc#\	16e/	.
.	.	.	.	16a/JJ)	.
4AA/	4r	4r	8a\	16cc#/LL	.
.	.	.	.	(16a/	.
.	.	.	8cc#\J	16e/	.
.	.	.	.	16a/JJ)	.
4AA/	2r	2r	8ee\L	16cc#/LL	.
.	.	.	.	(16a/	.
.	.	.	8cc#\	16e/	.
.	.	.	.	16a/JJ)	.
4AA/	.	.	8a\	16cc#/LL	.
.	.	.	.	(16a/	.
.	.	.	8cc#\J	16e/	.
.	.	.	.	16a/JJ)	.
=59	=59	=59	=59	=59	=59
4AA/	1r	1r	8ee\L	16cc#/LL	#
.	.	.	.	(16g/	.
.	.	.	8cc#\	16e/	.
.	.	.	.	16g/JJ)	.
4AA/	.	.	8a\	16cc#/LL	.
.	.	.	.	(16g/	.
.	.	.	8cc#\J	16e/	.
.	.	.	.	16g/JJ)	.
4AA/	.	.	8ee\L	16cc#/LL	.
.	.	.	.	(16g/	.
.	.	.	8cc#\	16e/	.
.	.	.	.	16g/JJ)	.
4AA/	.	.	8a\	16cc#/LL	.
.	.	.	.	(16g/	.
.	.	.	8cc#\J	16e/	.
.	.	.	.	16g/JJ)	.
=60	=60	=60	=60	=60	=60
4D\	1r	1r	8r	16ff#\LL	#
.	.	.	.	(16dd\	.
.	.	.	8ff#\L	16a\	.
.	.	.	.	16dd\JJ)	.
4D\	.	.	8dd\	16ff#\LL	.
.	.	.	.	(16dd\	.
.	.	.	8ff#\J	16a\	.
.	.	.	.	16dd\JJ)	.
4D\	.	.	8aa\L	16ff#\LL	.
.	.	.	.	(16dd\	.
.	.	.	8ff#\	16a\	.
.	.	.	.	16dd\JJ)	.
4D\	.	.	8dd\	16ff#\LL	.
.	.	.	.	(16dd\	.
.	.	.	8ff#\J	16a\	.
.	.	.	.	16dd\JJ)	.
=61	=61	=61	=61	=61	=61
4D\	1r	1r	8aa\L	16ff#\LL	#
.	.	.	.	(16cc\	.
.	.	.	8ff#\	16a\	.
.	.	.	.	16cc\JJ)	.
4D\	.	.	8cc\	16ff#\LL	.
.	.	.	.	(16cc\	.
.	.	.	8ff#\J	16a\	.
.	.	.	.	16cc\JJ)	.
4D\	.	.	8aa\L	16ff#\LL	.
.	.	.	.	(16cc\	.
.	.	.	8ff#\	16a\	.
.	.	.	.	16cc\JJ)	.
4D\	.	.	8cc\	16ff#\LL	.
.	.	.	.	(16cc\	.
.	.	.	8ff#\J	16a\	.
.	.	.	.	16cc\JJ)	.
=62	=62	=62	=62	=62	=62
4BB-/	1r	1r	8r	16gg\LL	6
.	.	.	.	(16dd\	.
.	.	.	8gg\L	16b-\	.
.	.	.	.	16dd\JJ)	.
4BB-/	.	.	8dd\	16gg\LL	.
.	.	.	.	(16dd\	.
.	.	.	8gg\J	16b-\	.
.	.	.	.	16dd\JJ)	.
4BB-/	.	.	8bb-\L	16gg\LL	.
.	.	.	.	(16dd\	.
.	.	.	8gg\	16b-\	.
.	.	.	.	16dd\JJ)	.
4BB-/	.	.	8dd\	16gg\LL	.
.	.	.	.	(16dd\	.
.	.	.	8gg\J	16b-\	.
.	.	.	.	16dd\JJ)	.
=63	=63	=63	=63	=63	=63
[1AA/	1r	1r	8gg\L	(16cc#\LL	#
.	.	.	.	16a\)	.
.	.	.	8a\	(16dd\	.
.	.	.	.	16cc#\JJ)	.
.	.	.	8bn\	(16ee\LL	.
.	.	.	.	16dd\)	.
.	.	.	8cc#\J	(16ff\	.
.	.	.	.	16ee\JJ)	.
.	.	.	8r	(16dd\LL	.
.	.	.	.	16cc#\)	.
.	.	.	8b\L	(16ee\	.
.	.	.	.	16dd\JJ)	.
.	.	.	8cc#\	(16ff\LL	.
.	.	.	.	16ee\)	.
.	.	.	8dd\J	(16gg\	.
.	.	.	.	16ff\JJ)	.
=64	=64	=64	=64	=64	=64
1AA_/	1r	1r	8r	(16ee\LL	.
.	.	.	.	16dd\)	.
.	.	.	8cc#\L	(16ff\	.
.	.	.	.	16ee\JJ)	.
.	.	.	8dd\	(16gg\LL	.
.	.	.	.	16ff\)	.
.	.	.	8ee\J	(16aa\	.
.	.	.	.	16gg\JJ)	.
.	.	.	8r	(16ff\LL	6 4
.	.	.	.	16ee\)	.
.	.	.	8dd\L	(16gg\	.
.	.	.	.	16ff\JJ)	.
.	.	.	8ee\	(16aa\LL	.
.	.	.	.	16gg\)	.
.	.	.	8ff\J	(16bb-\	.
.	.	.	.	16aa\JJ)	.
=65	=65	=65	=65	=65	=65
1AA_/	1r	1r	8r	(16gg\LL	#
.	.	.	.	16ff\)	.
.	.	.	8ee\L	(16aa\	.
.	.	.	.	16gg\JJ)	.
.	.	.	8ff\	(16bb-\LL	.
.	.	.	.	16aa\)	.
.	.	.	8gg\J	(16ccc\	.
.	.	.	.	16bb-\JJ)	.
.	.	.	8r	(16aa\LL	6 4
.	.	.	.	16gg\)	.
.	.	.	8ff\L	(16bb-\	.
.	.	.	.	16aa\JJ)	.
.	.	.	8gg\	(16ccc\LL	.
.	.	.	.	16bb-\)	.
.	.	.	8aa\J	(16ddd\	.
.	.	.	.	16ccc#\JJ)	.
=66	=66	=66	=66	=66	=66
1AA_/	1r	1r	1r	(16ddd\LL	.
.	.	.	.	16ccc\)	.
.	.	.	.	(16bb-\	.
.	.	.	.	16aa\JJ)	.
.	.	.	.	(16bb-\LL	.
.	.	.	.	16aa\)	.
.	.	.	.	(16gg\	.
.	.	.	.	16ff\JJ)	.
.	.	.	.	(16gg\LL	7
.	.	.	.	16ff\)	.
.	.	.	.	(16ee\	.
.	.	.	.	16dd\JJ)	.
.	.	.	.	(16ee\LL	.
.	.	.	.	16dd\)	.
.	.	.	.	(16cc#\	.
.	.	.	.	16bn\JJ)	.
=67	=67	=67	=67	=67	=67
1AA_/	1r	1r	1r	(16a\LL	6 4
.	.	.	.	16dd\)	.
.	.	.	.	(16ee\	.
.	.	.	.	16ff\JJ)	.
.	.	.	.	(16a\LL	.
.	.	.	.	16dd\)	.
.	.	.	.	(16ee\	.
.	.	.	.	16ff\JJ)	.
.	.	.	.	(16a\LL	.
.	.	.	.	16dd\)	.
.	.	.	.	(16ee\	.
.	.	.	.	16ff\JJ)	.
.	.	.	.	(16a\LL	.
.	.	.	.	16dd\)	.
.	.	.	.	(16ee\	.
.	.	.	.	16ff\JJ)	.
=68	=68	=68	=68	=68	=68
2AA/]	2r	2r	2r	4.eet\	#
.	.	.	.	8dd\	.
4D\	4r	8r	8r	8dd\L	.
.	.	8dd\	8dd\	8dd\J	.
8r	8r	[4aa\	[4aa\	[4aa\	.
8D\	8f\	.	.	.	.
=69	=69	=69	=69	=69	=69
[2B-\	2d\	8aa\L]	8aa\L]	8aa\L]	7
.	.	16gg\L	16gg\L	16gg\L	6
.	.	16ff\JJ	16ff\JJ	16ff\JJ	.
.	.	8ee\L	8ee\L	8ee\L	.
.	.	8dd\J	8dd\J	8dd\J	.
8B-\L]	8e\L	8cc#\L	8cc#\L	8cc#\L	4 2+
16A\L	8b-\	8dd\J	8dd\J	8dd\J	.
16G\JJ	.	.	.	.	.
8F\L	8a\	[4ee\	[4ee\	[4ee\	.
8E\J	8g\J	.	.	.	.
=70	=70	=70	=70	=70	=70
4.F\	4.a\	8ee\L]	8ee\L]	8ee\L]	7
.	.	8a\J	8a\J	8a\J	.
.	.	8dd\L	8dd\L	8dd\L	6
16E\LL	16g\LL	16ee\L	16ee\L	16ee\L	.
16D\JJ	16f\JJ	16ff\JJ	16ff\JJ	16ff\JJ	.
4C#/	4e\	8gg\L	8gg\L	8gg\L	6 5
.	.	8ee\J	8ee\	8ee\	.
4AA/	4c#\	8aa\L	8aa\	8aa\	.
.	.	8gg\J	8gg\J	8gg\J	.
=71	=71	=71	=71	=71	=71
4D\	8A\L	8ff\L	8ff\L	8ff\L	.
.	8f\	8dd\J	8dd\J	8dd\J	.
16G\LL	8d\	[4bb-\	[4bb-\	[4bb-\	7
16A\	.	.	.	.	.
16B-\	8g\J	.	.	.	.
16G\JJ	.	.	.	.	.
16c\LL	16e\LL	8bb-\L]	8bb-\L]	8bb-\L]	7
16d\	16f\	.	.	.	.
16e\	16g\	8ee\J	8ee\J	8ee\J	.
16c\JJ	16e\JJ	.	.	.	.
16F\LL	8c\L	[4aa\	[4aa\	[4aa\	7
16G\	.	.	.	.	.
16A\	8f\J	.	.	.	.
16F\JJ	.	.	.	.	.
=72	=72	=72	=72	=72	=72
16B-\LL	16d\LL	8aa\L]	8aa\L]	8aa\L]	7
16c\	16e\	.	.	.	.
16d\	16f\	8dd\J	8dd\J	8dd\J	.
16c\JJ	16e\JJ	.	.	.	.
16B-\LL	16d\LL	[4gg\	[4gg\	[4gg\	6
16A\	16c\	.	.	.	.
16G\	16B-\	.	.	.	.
16B-\JJ	16d\JJ	.	.	.	.
16A\LL	16c#\LL	8gg\L]	8gg\L]	8gg\L]	7 #
16Bn\	16d\	.	.	.	.
16c#\	16e\	8a\J	8a\J	8a\J	.
16A\JJ	16c#\JJ	.	.	.	.
16D\LL	8A\L	[4ff\	[4ff\	[4ff\	.
16E\	.	.	.	.	.
16F\	8a\J	.	.	.	.
16D\JJ	.	.	.	.	.
=73	=73	=73	=73	=73	=73
16G\LL	4b-\	8ff\L]	8ff\L]	8ff\L]	.
16A\	.	.	.	.	.
16B-\	.	16ee\L	16ee\L	16ee\L	.
16G\JJ	.	16dd\JJ	16dd\JJ	16dd\JJ	.
8A\L	4e\	8.cc#t\L	8.cc#t\L	8.cc#t\L	4
8AA\J	.	.	.	.	#
.	.	16dd\Jk	16dd\Jk	16dd\Jk	.
4D\	4f\	8dd\L	8dd\L	8dd\L	.
.	.	8a\J	8a\J	8a\J	.
8r	8r	[4b-\	[4b-\	[4b-\	.
8D\	8f\	.	.	.	6
=74	=74	=74	=74	=74	=74
4.C#/	4.e\	8b-/L]	8b-/L]	8b-/L]	7
.	.	8a/J	8a/J	8a/J	6
.	.	[4gg\	[4gg\	[4gg\	.
8AA/	8c#\	.	.	.	.
4.D\	4A/	8gg\L]	8gg\L]	8gg\L]	.
.	.	8ff\J	8ff\J	8ff\J	.
.	8f\L	[4bb-\	[4bb-\	[4bb-\	.
8G\	8d\J	.	.	.	.
=75	=75	=75	=75	=75	=75
4C#/	4e\	8bb-\L]	8bb-\L]	8bb-\L]	7 5
.	.	16aa\L	16aa\L	16aa\L	.
.	.	16gg\JJ	16gg\JJ	16gg\JJ	.
8D/L	[4a\	8ff\L	8ff\L	8ff\L	.
8C#/J	.	8ee\J	8ee\J	8ee\J	.
8D\L	8a\L]	8ff\L	8ff\L	8ff\L	.
8G\	8b-\	16ee\L	16ee\L	16ee\L	.
.	.	16dd\JJ	16dd\JJ	16dd\JJ	.
8A\	8e\	8.cc#t\L	8.cc#t\L	8.cc#t\L	4
8AA\J	8a\J	.	.	.	#
.	.	16dd\Jk	16dd\Jk	16dd\Jk	.
=76	=76	=76	=76	=76	=76
1D\	1f\	1dd\	1dd\	1dd\	.
==|!	==|!	==|!	==|!	==|!	==|!
*>2b	*>2b	*>2b	*>2b	*>2b	*>2b
!! RV 242 / Dresden 2389-O-44 (Pisendel)                 
=50	=50	=50	=50	=50	=50
[1F#\	[1f#\	[1a/	[1cc\	2aa\ 2cc\ 2d\	.
.	.	.	.	[2aa\ [2cc\ [2f#\	.
=51	=51	=51	=51	=51	=51
2F#\]	2f#\]	2a/]	2cc\]	2aa\] 2cc\] 2f#\]	.
[2GG/	[2d\	[2g/	[2b-\	2gg\ 2b-\ 2d\	.
=52	=52	=52	=52	=52	=52
1GG_/	1d_\	1g_/	1b-_\	16gg\LL	.
.	.	.	.	32gg\L	.
.	.	.	.	32aa\J	.
.	.	.	.	16bb-\	.
.	.	.	.	16gg\JJ	.
.	.	.	.	16dd\LL	.
.	.	.	.	32bb-\L	.
.	.	.	.	32ccc\J	.
.	.	.	.	16ddd\	.
.	.	.	.	16bb-\JJ	.
.	.	.	.	16gg\LL	.
.	.	.	.	32gg\L	.
.	.	.	.	32aa\J	.
.	.	.	.	16bb-\	.
.	.	.	.	16gg\JJ	.
.	.	.	.	16dd\LL	.
.	.	.	.	32b-\L	.
.	.	.	.	32cc\J	.
.	.	.	.	16dd\	.
.	.	.	.	16b-\JJ	.
=53	=53	=53	=53	=53	=53
2GG_/	2d_\	2g_/	2b-_\	16g/LL	.
.	.	.	.	32g/L	.
.	.	.	.	32a/J	.
.	.	.	.	16b-/	.
.	.	.	.	16g/JJ	.
.	.	.	.	16d/LL	.
.	.	.	.	32B-/L	.
.	.	.	.	32c/J	.
.	.	.	.	16d/	.
.	.	.	.	16B-/JJ	.
4GG/]	4d\]	8g\L]	8b-\L]	8G/L	.
.	.	8dd\J	8dd\J	8dd\J	.
8r	8r	[4gg\	[4gg\	[4gg\	.
8G\	8Bn/	.	.	.	.
=54	=54	=54	=54	=54	=54
[2A-\	2c\	8gg\L]	8gg\L]	8gg\L]	.
.	.	16ff\L	16ff\L	16ff\L	.
.	.	16ee-\JJ	16ee-\JJ	16ee-\JJ	.
.	.	8dd\L	8dd\L	8dd\L	.
.	.	8cc\J	8cc\J	8cc\J	.
8A-\L]	8d\L	8bn\L	8bn\L	8bn\L	.
16G\L	8a-\	8cc\J	8cc\J	8cc\J	.
16F\JJ	.	.	.	.	.
8E-\L	8g\	4dd\	4dd\	4dd\	.
8D\J	8f\J	.	.	.	.
=55	=55	=55	=55	=55	=55
4.E-\	4.g\	8dd\L	8dd\L	8dd\L	.
.	.	8g\J	8g\J	8g\J	.
.	.	8cc\L	8cc\L	8cc\L	.
16D/LL	16f\LL	16dd\L	16dd\L	16dd\L	.
16C/JJ	16e-\JJ	16ee-\JJ	16ee-\JJ	16ee-\JJ	.
4BBn/	4d\	8ff\L	8ff\L	8ff\L	.
.	.	8dd\	8dd\	8dd\	.
4GG/	4Bn/	8gg\	8gg\	8gg\	.
.	.	8ff\J	8ff\J	8ff\J	.
=56	=56	=56	=56	=56	=56
4C/	4G/	8ee-\L	8ee-\L	8ee-\L	.
.	.	8cc\J	8cc\J	8cc\J	.
8r	8r	4ccc\	4ccc\	4ccc\	.
8c\	8a\	.	.	.	.
[2f\	[2dd\	8ccc\L	8ccc\L	8ccc\L	.
.	.	16bb-\L	16bb-\L	16bb-\L	.
.	.	16aa\JJ	16aa\JJ	16aa\JJ	.
.	.	8gg\L	8gg\L	8gg\L	.
.	.	8ff\J	8ff\J	8ff\J	.
=57	=57	=57	=57	=57	=57
8f\L]	1dd\]	[2bb-\	[2bb-\	[2bb-\	.
16e-\L	.	.	.	.	.
16d\JJ	.	.	.	.	.
8c\L	.	.	.	.	.
8B-\J	.	.	.	.	.
[2e-\	.	8bb-\L]	8bb-\L]	8bb-\L]	.
.	.	16aa\L	16aa\L	16aa\L	.
.	.	16gg\JJ	16gg\JJ	16gg\JJ	.
.	.	8ff\L	8ff\L	8ff\L	.
.	.	8ee-\J	8ee-\J	8ee-\J	.
=58	=58	=58	=58	=58	=58
8e-\L]	1cc\	[2aa\	[2aa\	[2aa\	.
16d\L	.	.	.	.	.
16c\JJ	.	.	.	.	.
8B-\L	.	.	.	.	.
8A\J	.	.	.	.	.
[2d\	.	8aa\L]	8aa\L]	8aa\L]	.
.	.	16gg\L	16gg\L	16gg\L	.
.	.	16ff\JJ	16ff\JJ	16ff\JJ	.
.	.	8ee\L	8ee\L	8ee\L	.
.	.	8dd\J	8dd\J	8dd\J	.
=59	=59	=59	=59	=59	=59
4d\]	8b-\L	8gg\L	8gg\L	8gg\L	.
.	16cc\L	16aa\L	16aa\L	16aa\L	.
.	16dd\JJ	16bb-\JJ	16bb-\JJ	16bb-\JJ	.
4c#\	8e\L	8aa\L	8aa\L	8aa\L	.
.	8a\J	8gg\J	8gg\J	8gg\J	.
4d\	4a\	8ff\L	8ff\L	8ff\L	.
.	.	8dd\J	8dd\J	8dd\J	.
8d\	8a\	8ff\	8ff\	8ff\	.
8r	8r	8r	8r	8r	.
=60	=60	=60	=60	=60	=60
8G\	8b-\	8ee-\	8ee-\	8ee-\	.
8r	8r	8r	8r	8r	.
8G#\	8bn\	8dd\	8dd\	8dd\	.
8r	8r	8r	8r	8r	.
4A\	4e\	4cc#\	4cc#\	16cc#\LL	.
.	.	.	.	16aa\	.
.	.	.	.	16a\	.
.	.	.	.	16gg\JJ	.
4D\	4r	4r	4r	16ff\LL	.
.	.	.	.	16dd\	.
.	.	.	.	16d\	.
.	.	.	.	16dd\JJ	.
=61	=61	=61	=61	=61	=61
4G\	1r	1r	1r	16b-\LL	.
.	.	.	.	16gg\	.
.	.	.	.	16dd\	.
.	.	.	.	16gg\JJ	.
4C/	.	.	.	16ee\LL	.
.	.	.	.	16cc\	.
.	.	.	.	16c\	.
.	.	.	.	16cc\JJ	.
4F\	.	.	.	16a\LL	.
.	.	.	.	16ff\	.
.	.	.	.	16cc\	.
.	.	.	.	16ff\JJ	.
4B-\	.	.	.	16dd/LL	.
.	.	.	.	16b-/	.
.	.	.	.	16B-/	.
.	.	.	.	16b-/JJ	.
=62	=62	=62	=62	=62	=62
4E\	1r	1r	1r	16g\LL	.
.	.	.	.	16ee\	.
.	.	.	.	16bn\	.
.	.	.	.	16ee\JJ	.
4A\	.	.	.	16cc#/LL	.
.	.	.	.	16a/	.
.	.	.	.	16A/	.
.	.	.	.	16a/JJ	.
4D\	.	.	.	16f\LL	.
.	.	.	.	16dd\	.
.	.	.	.	16a\	.
.	.	.	.	16dd\JJ	.
4D\	.	.	.	16f\LL	.
.	.	.	.	16dd\	.
.	.	.	.	16a\	.
.	.	.	.	16dd\JJ	.
=63	=63	=63	=63	=63	=63
4G\	1r	1r	1r	16G/LL	.
.	.	.	.	16dd/	.
.	.	.	.	16a/	.
.	.	.	.	16dd/JJ	.
4A\	.	.	.	16A/LL	.
.	.	.	.	16dd/	.
.	.	.	.	16a/	.
.	.	.	.	16dd/JJ	.
4B-\	.	.	.	16B-/LL	.
.	.	.	.	16dd/	.
.	.	.	.	16a/	.
.	.	.	.	16dd/JJ	.
4D\	.	.	.	16f\LL	.
.	.	.	.	16dd\	.
.	.	.	.	16a\	.
.	.	.	.	16dd\JJ	.
=64	=64	=64	=64	=64	=64
4G\	1r	1r	1r	16G/LL	.
.	.	.	.	16dd/	.
.	.	.	.	16a/	.
.	.	.	.	16dd/JJ	.
4A\	.	.	.	16A/LL	.
.	.	.	.	16dd/	.
.	.	.	.	16a/	.
.	.	.	.	16dd/JJ	.
4B-\	.	.	.	16B-/LL	.
.	.	.	.	16dd/	.
.	.	.	.	16a/	.
.	.	.	.	16dd/JJ	.
4D\	.	.	.	16f\LL	.
.	.	.	.	16ff\	.
.	.	.	.	16ee\	.
.	.	.	.	16dd\JJ	.
=65	=65	=65	=65	=65	=65
4A\	1r	1r	1r	16cc#\LL	.
.	.	.	.	16aa\	.
.	.	.	.	16ee\	.
.	.	.	.	16aa\JJ	.
4A\	.	.	.	16a\LL	.
.	.	.	.	16aa\	.
.	.	.	.	16ee\	.
.	.	.	.	16aa\JJ	.
4Bn\	.	.	.	16bn\LL	.
.	.	.	.	16aa\	.
.	.	.	.	16ee\	.
.	.	.	.	16aa\JJ	.
4c#\	.	.	.	16cc#\LL	.
.	.	.	.	16aa\	.
.	.	.	.	16ee\	.
.	.	.	.	16aa\JJ	.
=66	=66	=66	=66	=66	=66
4d\	1r	1r	1r	16dd\LL	.
.	.	.	.	16aa\	.
.	.	.	.	16ee\	.
.	.	.	.	16aa\JJ	.
4A\	.	.	.	16a\LL	.
.	.	.	.	16aa\	.
.	.	.	.	16ee\	.
.	.	.	.	16aa\JJ	.
4Bn\	.	.	.	16bn\LL	.
.	.	.	.	16aa\	.
.	.	.	.	16ee\	.
.	.	.	.	16aa\JJ	.
4c#\	.	.	.	16cc#\LL	.
.	.	.	.	16aa\	.
.	.	.	.	16ee\	.
.	.	.	.	16aa\JJ	.
=67	=67	=67	=67	=67	=67
4d\	1r	1r	1r	16dd\LL	.
.	.	.	.	16dd\	.
.	.	.	.	16a\	.
.	.	.	.	16dd\JJ	.
4F\	.	.	.	16f\LL	.
.	.	.	.	16dd\	.
.	.	.	.	16a\	.
.	.	.	.	16dd\JJ	.
4G\	.	.	.	16g\LL	.
.	.	.	.	16dd\	.
.	.	.	.	16a\	.
.	.	.	.	16dd\JJ	.
4F\	.	.	.	16f\LL	.
.	.	.	.	16dd\	.
.	.	.	.	16a\	.
.	.	.	.	16dd\JJ	.
=68	=68	=68	=68	=68	=68
4G\	1r	1r	1r	16g\LL	.
.	.	.	.	16dd\	.
.	.	.	.	16a\	.
.	.	.	.	16dd\JJ	.
4D\	.	.	.	16f\LL	.
.	.	.	.	16dd\	.
.	.	.	.	16a\	.
.	.	.	.	16dd\JJ	.
4A\	.	.	.	16e\LL	.
.	.	.	.	16dd\	.
.	.	.	.	16a\	.
.	.	.	.	16dd\JJ	.
4AA/	.	.	.	16e/LL	.
.	.	.	.	16cc#/	.
.	.	.	.	16a/	.
.	.	.	.	16cc#/JJ	.
=69	=69	=69	=69	=69	=69
4D\	4r	8r	8r	8dd\L	.
.	.	8dd\	8dd\	8dd\J	.
8r	8r	[4aa\	[4aa\	[4aa\	.
8D\	8a\	.	.	.	.
4d\	4f#\	8aa\]	8aa\]	8aa\]	.
.	.	4ff#\	4ff#\	4ff#\	.
4c\	4a\	.	.	.	.
.	.	8gg\	8gg\	8gg\	.
=70	=70	=70	=70	=70	=70
4B-\	(8d\L	(8g\L	(8g\L	(8g\L	.
.	8g\	8b-\	8b-\	8b-\	.
8r	8b-\)	8dd\)	8dd\)	8dd\)	.
8B-\	8dd\J	[8gg\J	[8gg\J	[8gg\J	.
4c\	4e\	8gg\]	8gg\]	8gg\]	.
.	.	4ee\	4ee\	4ee\	.
4B-\	4g\	.	.	.	.
.	.	8ff\	8ff\	8ff\	.
=71	=71	=71	=71	=71	=71
4A\	(8c\L	(8f\L	(8f\L	(8f\L	.
.	8f\	8a\	8a\	8a\	.
8r	8a\)	8cc\)	8cc\)	8cc\)	.
8A\	8cc\J	[8ff\J	[8ff\J	[8ff\J	.
4G\	4b-\	8ff\]	8ff\]	8ff\]	.
.	.	4ee\	4ee\	4ee\	.
4G#\	4bn\	.	.	.	.
.	.	8dd\	8dd\	8dd\	.
=72	=72	=72	=72	=72	=72
4A\	4e\	8cc#\	8cc#\	8cc#\	.
.	.	4aa\	4aa\	4aa\	.
4C#/	4e\	.	.	.	.
.	.	8gg\	8gg\	8gg\	.
4D\	8A\L	8ff\L	8ff\L	8ff\L	.
.	8f\	8dd\J	8dd\J	8dd\J	.
16G\LL	8d\	[4bb-\	[4bb-\	[4bb-\	.
16A\	.	.	.	.	.
16B-\	8a\J	.	.	.	.
16G\JJ	.	.	.	.	.
=73	=73	=73	=73	=73	=73
16c\LL	16e\LL	8bb-\L]	8bb-\L]	8bb-\L]	.
16d\	16f\	.	.	.	.
16e\	16g\	8ee\J	8ee\J	8ee\J	.
16c\JJ	16e\JJ	.	.	.	.
16F\LL	8c\L	[4aa\	[4aa\	[4aa\	.
16G\	.	.	.	.	.
16A\	8f\J	.	.	.	.
16F\JJ	.	.	.	.	.
16B-\LL	16d\LL	8aa\L]	8aa\L]	8aa\L]	.
16c\	16e\	.	.	.	.
16d\	16f\	8dd\J	8dd\J	8dd\J	.
16c\JJ	16e\JJ	.	.	.	.
16B-\LL	16d\LL	[4gg\	[4gg\	[4gg\	.
16A\	16c\	.	.	.	.
16G\	16B-\	.	.	.	.
16B-\JJ	16d\JJ	.	.	.	.
=74	=74	=74	=74	=74	=74
16A\LL	16c#\LL	8gg\L]	8gg\L]	8gg\L]	.
16Bn\	16d\	.	.	.	.
16c#\	16e\	8a\J	8a\J	8a\J	.
16A\JJ	16c#\JJ	.	.	.	.
16D\LL	8A\L	[4ff\	[4ff\	[4ff\	.
16E\	.	.	.	.	.
16F\	8a\J	.	.	.	.
16D\JJ	.	.	.	.	.
16G\LL	4b-\	8ff\L]	8ff\L]	8ff\L]	.
16A\	.	.	.	.	.
16B-\	.	16ee\L	16ee\L	16ee\L	.
16G\JJ	.	16dd\JJ	16dd\JJ	16dd\JJ	.
8A\L	4e\	8.cc#t\L	8.cc#t\L	8.cc#t\L	.
8AA\J	.	.	.	.	.
.	.	16dd\Jk	16dd\Jk	16dd\Jk	.
=75	=75	=75	=75	=75	=75
4D\	4f\	8dd\L	8dd\L	8dd\L	.
.	.	8a\J	8a\J	8a\J	.
8r	8r	[4b-\	[4b-\	[4b-\	.
8D\	8f\	.	.	.	.
4.C#/	4.e\	8b-/L]	8b-/L]	8b-/L]	.
.	.	8a/J	8a/J	8a/J	.
.	.	[4gg\	[4gg\	[4gg\	.
8AA/	8c#\	.	.	.	.
=76	=76	=76	=76	=76	=76
4.D\	4A/	8gg\L]	8gg\L]	8gg\L]	.
.	.	8ff\J	8ff\J	8ff\J	.
.	8f\L	[4bb-\	[4bb-\	[4bb-\	.
8G\	8d\J	.	.	.	.
4C#/	4e\	8bb-\L]	8bb-\L]	8bb-\L]	.
.	.	16aa\L	16aa\L	16aa\L	.
.	.	16gg\JJ	16gg\JJ	16gg\JJ	.
8D/L	[4a\	8ff\L	8ff\L	8ff\L	.
8C#/J	.	8ee\J	8ee\J	8ee\J	.
=77	=77	=77	=77	=77	=77
8D\L	8a\L]	8ff\L	8ff\L	8ff\L	.
8G\	8b-\	16ee\L	16ee\L	16ee\L	.
.	.	16dd\JJ	16dd\JJ	16dd\JJ	.
8A\	8e\	8.cc#t\L	8.cc#t\L	8.cc#t\L	.
8AA\J	8a\J	.	.	.	.
.	.	16dd\Jk	16dd\Jk	16dd\Jk	.
2D;\	2f;\	2dd;\	2dd;\	2dd;\	.
==|!	==|!	==|!	==|!	==|!	==|!
*-	*-	*-	*-	*-	*-
!!!CDT: 1678/3/4/-1741/7/28
!!!OCY: Italia
!!!ODE: Count Wenzeslaus von Morzin of Bohemia; Count Wenceslas of Morzin
!!!ODT: 1725///
!!!OPC: Venezia; Venice
!!!AGN: concerto
!!!AST: baroque
!!!AMT: simple quadruple
!!!PPR: Michel-Charles Le Ce`ne
!!!PC#: Le Cene No. 521
!!!PDT: 1725///
!!!PPP: Amsterdam
!!!SCT: RV 242
!!!SMA1: The cooperation of the following libraries is gratefully acknowledged:
!!!SMA2: Saechsische Landesbibliothek, Dresden; Biblioteca Nazionale
!!!SMA3: Universitaria, Turin; Henry Watson Music Library, Manchester.
!!!YOR: New York: Dover Publications, Inc. 1995
!!!AIN: cello cemba viola violn
!!!EEV: 1.0
!!!RDT: 1994/4/25/
!!!YER: 1996/10/31/
!!!YEP: Center for Computer Assisted Research in the Humanities
!!!YEN: United States of America
!!!EFL: 1/3
!!!ENC: Edmund Correia, Jr.
!!!EED: Eleanor Selfridge-Field
